CRM-system/src/assets/Cross.svg

<svg width="16" height="16" viewBox="0 0 16 16" fill="none" xmlns="http://www.w3.org/2000/svg">
<path d="M5.19281 4.19635L8 7.00342L10.7926 4.21089C10.8543 4.14524 10.9286 4.09272 11.0111 4.05648C11.0936 4.02024 11.1825 4.00103 11.2726 4C11.4655 4 11.6505 4.07662 11.7869 4.213C11.9233 4.34938 11.9999 4.53435 11.9999 4.72722C12.0016 4.81638 11.985 4.90494 11.9513 4.98748C11.9175 5.07001 11.8672 5.14478 11.8035 5.20719L8.97452 7.99971L11.8035 10.8286C11.9234 10.9459 11.9937 11.1046 11.9999 11.2722C11.9999 11.4651 11.9233 11.65 11.7869 11.7864C11.6505 11.9228 11.4655 11.9994 11.2726 11.9994C11.1799 12.0033 11.0875 11.9878 11.0011 11.954C10.9147 11.9202 10.8363 11.8688 10.7708 11.8031L8 8.996L5.20008 11.7958C5.13863 11.8593 5.06522 11.9099 4.98409 11.9449C4.90296 11.9798 4.8157 11.9984 4.72737 11.9994C4.53449 11.9994 4.34951 11.9228 4.21313 11.7864C4.07674 11.65 4.00012 11.4651 4.00012 11.2722C3.99842 11.183 4.01497 11.0945 4.04873 11.0119C4.0825 10.9294 4.13277 10.8546 4.19648 10.7922L7.02548 7.99971L4.19648 5.17082C4.07661 5.05357 4.00633 4.89478 4.00012 4.72722C4.00012 4.53435 4.07674 4.34938 4.21313 4.213C4.34951 4.07662 4.53449 4 4.72737 4C4.90191 4.00218 5.06918 4.07272 5.19281 4.19635Z" fill="white"/>
</svg>

<svg xmlns="http://www.w3.org/2000/svg" width="16" height="16" fill="none"><path fill="#fff" d="M5.193 4.196 8 7.003l2.793-2.792a.67.67 0 0 1 .48-.211.727.727 0 0 1 .678.987.655.655 0 0 1-.148.22L8.976 8l2.829 2.829c.12.117.19.276.196.443a.727.727 0 0 1-.727.727.668.668 0 0 1-.502-.196L8 8.996l-2.8 2.8a.67.67 0 0 1-.473.203.727.727 0 0 1-.678-.987.655.655 0 0 1 .147-.22L7.026 8l-2.83-2.83A.654.654 0 0 1 4 4.728.727.727 0 0 1 4.727 4a.67.67 0 0 1 .466.196Z"/></svg>
